plasma/desktoptheme/Materia-Color/icons/wallet.svg

<svg xmlns="http://www.w3.org/2000/svg" width="32" height="32" version="1.1">
 <defs id="materia">
  <style id="current-color-scheme" type="text/css">
   .ColorScheme-Background {color:#181818; } .ColorScheme-ButtonBackground { color:#343434; } .ColorScheme-Highlight { color:#4285f4; } .ColorScheme-Text { color:#dfdfdf; } .ColorScheme-ViewBackground { color:#242424; } .ColorScheme-NegativeText { color:#f44336; } .ColorScheme-PositiveText { color:#4caf50; } .ColorScheme-NeutralText { color:#ff9800; }
  </style>
 </defs>
 <g id="22-22-wallet-closed" transform="translate(29.66,8.0899998)">
  <rect style="opacity:0.001" width="22" height="22" x="-29.66" y="-30.09"/>
  <path style="fill:currentColor" class="ColorScheme-Text" d="m -25.159091,-27.085227 c -0.831,0 -1.5,0.669 -1.5,1.5 v 13 c 0,0.831 0.669,1.5 1.5,1.5 h 11 c 0.831,0 1.5,-0.669 1.5,-1.5 v -1.5 H -14.2587 c -1.287169,0 -2.400391,-1.030346 -2.400391,-2.332031 v -5.333985 c 0,-1.301922 1.113222,-2.333984 2.400391,-2.333984 h 1 0.599609 v -1.5 c 0,-0.831 -0.669,-1.5 -1.5,-1.5 z m 10.900391,4 c -0.776,0 -1.400391,0.594984 -1.400391,1.333984 v 5.333985 c 0,0.738 0.624391,1.332031 1.400391,1.332031 h 3.599609 v -8 z m 0.599609,3 a 1,1 0 0 1 1,1 1,1 0 0 1 -1,1 1,1 0 0 1 -1,-1 1,1 0 0 1 1,-1 z"/>
 </g>
 <g id="22-22-wallet-open" transform="translate(27,-27)">
  <rect style="opacity:0.001" width="22" height="22" x="5" y="5"/>
  <path style="fill:currentColor" class="ColorScheme-Text" d="M 9.5,8 C 8.669,8 8,8.669 8,9.5 v 13 C 8,23.331 8.669,24 9.5,24 h 11 C 21.331,24 22,23.331 22,22.5 V 9.5 C 22,8.669 21.331,8 20.5,8 Z M 26,13 v 6 h 0.142578 C 26.617435,19 27,18.749125 27,18.4375 v -4.875 C 27,13.250875 26.617435,13 26.142578,13 Z"/>
  <path style="fill:currentColor" class="ColorScheme-Highlight" d="M 22.908203,9 C 22.963861,9.1572213 23,9.3232402 23,9.5 v 13 c 0,0.17676 -0.03614,0.342779 -0.0918,0.5 h 0.806641 C 24.427129,23 25,22.414625 25,21.6875 V 10.3125 C 25,9.585375 24.427129,9 23.714844,9 Z"/>
 </g>
 <g id="wallet-closed">
  <rect style="opacity:0.001" width="32" height="32" x="0" y="0"/>
  <path style="fill:currentColor" class="ColorScheme-Text" d="M 6.25,4 C 5.0035001,4 4,5.0035001 4,6.25 v 19.5 C 4,26.9965 5.0035001,28 6.25,28 h 16.5 C 23.9965,28 25,26.9965 25,25.75 V 23 H 22.601562 C 20.670808,23 19,21.454481 19,19.501953 V 12.5 C 19,10.547117 20.675084,9.1284318 22.601562,9 h 1.5 H 25 V 6.25 C 25,5.0035001 23.9965,4 22.75,4 Z m 16.429688,7 C 21.748487,11 21,11.744219 21,12.667969 v 6.667969 C 21,20.258439 21.748487,21 22.679688,21 H 27 V 11 Z M 23,15 a 1,1 0 0 1 1,1 1,1 0 0 1 -1,1 1,1 0 0 1 -1,-1 1,1 0 0 1 1,-1 z"/>
 </g>
 <g id="wallet-open" transform="translate(32)">
  <rect style="opacity:0.001" width="32" height="32" x="0" y="0"/>
  <path style="fill:currentColor" class="ColorScheme-Text" d="M 5.25,4 C 4.0035,4 3,5.0034999 3,6.25 v 19.5 C 3,26.9965 4.0035,28 5.25,28 h 16.5 C 22.9965,28 24,26.9965 24,25.75 V 6.25 C 24,5.0034999 22.9965,4 21.75,4 Z M 29,11 v 10 h 0.285156 C 30.23487,21 31,20.581875 31,20.0625 v -8.125 C 31,11.418125 30.23487,11 29.285156,11 Z"/>
  <path style="fill:currentColor" class="ColorScheme-Highlight" d="m 24.000006,6 c 0.07982,0.2246018 0.131651,0.4617717 0.131651,0.7142857 V 25.285715 C 24.131657,25.53823 24.079827,25.775399 24,26 h 1.156862 C 26.178405,26 27,25.163751 27,24.125001 V 7.8750001 C 27,6.8362501 26.178405,6 25.156867,6 Z"/>
 </g>
</svg>

<?xml version="1.0" encoding="UTF-8"?>
<svg width="32" height="32" version="1.1" xmlns="http://www.w3.org/2000/svg">
 <defs id="materia">
  <style id="current-color-scheme" type="text/css">.ColorScheme-Background {color:#181818; } .ColorScheme-ButtonBackground { color:#343434; } .ColorScheme-Highlight { color:#4285f4; } .ColorScheme-Text { color:#dfdfdf; } .ColorScheme-ViewBackground { color:#242424; } .ColorScheme-NegativeText { color:#f44336; } .ColorScheme-PositiveText { color:#4caf50; } .ColorScheme-NeutralText { color:#ff9800; }</style>
 </defs>
 <g id="22-22-wallet-closed" transform="translate(29.66 8.09)">
  <rect x="-29.66" y="-30.09" width="22" height="22" opacity=".001"/>
  <path class="ColorScheme-Text" d="m-25.159-27.085c-0.831 0-1.5 0.669-1.5 1.5v13c0 0.831 0.669 1.5 1.5 1.5h11c0.831 0 1.5-0.669 1.5-1.5v-1.5h-1.5996c-1.2872 0-2.4004-1.0303-2.4004-2.332v-5.334c0-1.3019 1.1132-2.334 2.4004-2.334h1.5996v-1.5c0-0.831-0.669-1.5-1.5-1.5zm10.9 4c-0.776 0-1.4004 0.59498-1.4004 1.334v5.334c0 0.738 0.62439 1.332 1.4004 1.332h3.5996v-8zm0.59961 3a1 1 0 0 1 1 1 1 1 0 0 1-1 1 1 1 0 0 1-1-1 1 1 0 0 1 1-1z" fill="currentColor"/>
 </g>
 <g id="22-22-wallet-open" transform="translate(27,-27)">
  <rect x="5" y="5" width="22" height="22" opacity=".001"/>
  <path class="ColorScheme-Text" d="m9.5 8c-0.831 0-1.5 0.669-1.5 1.5v13c0 0.831 0.669 1.5 1.5 1.5h11c0.831 0 1.5-0.669 1.5-1.5v-13c0-0.831-0.669-1.5-1.5-1.5zm16.5 5v6h0.14258c0.47486 0 0.85742-0.25088 0.85742-0.5625v-4.875c0-0.31162-0.38256-0.5625-0.85742-0.5625z" fill="currentColor"/>
  <path class="ColorScheme-Highlight" d="m22.908 9c0.055658 0.15722 0.091797 0.32324 0.091797 0.5v13c0 0.17676-0.03614 0.34278-0.0918 0.5h0.80664c0.71229 0 1.2852-0.58538 1.2852-1.3125v-11.375c0-0.72712-0.57287-1.3125-1.2852-1.3125z" fill="currentColor"/>
 </g>
 <g id="wallet-closed">
  <rect width="32" height="32" opacity=".001"/>
  <path class="ColorScheme-Text" d="m6.25 4c-1.2465 0-2.25 1.0035-2.25 2.25v19.5c0 1.2465 1.0035 2.25 2.25 2.25h16.5c1.2465 0 2.25-1.0035 2.25-2.25v-2.75h-2.3984c-1.9308 0-3.6016-1.5455-3.6016-3.498v-7.002c0-1.9529 1.6751-3.3716 3.6016-3.5h2.3984v-2.75c0-1.2465-1.0035-2.25-2.25-2.25zm16.43 7c-0.9312 0-1.6797 0.74422-1.6797 1.668v6.668c0 0.9225 0.74849 1.6641 1.6797 1.6641h4.3203v-10zm0.32031 4a1 1 0 0 1 1 1 1 1 0 0 1-1 1 1 1 0 0 1-1-1 1 1 0 0 1 1-1z" fill="currentColor"/>
 </g>
 <g id="wallet-open" transform="translate(32)">
  <rect width="32" height="32" opacity=".001"/>
  <path class="ColorScheme-Text" d="m5.25 4c-1.2465 0-2.25 1.0035-2.25 2.25v19.5c0 1.2465 1.0035 2.25 2.25 2.25h16.5c1.2465 0 2.25-1.0035 2.25-2.25v-19.5c0-1.2465-1.0035-2.25-2.25-2.25zm23.75 7v10h0.28516c0.94971 0 1.7148-0.41812 1.7148-0.9375v-8.125c0-0.51938-0.76513-0.9375-1.7148-0.9375z" fill="currentColor"/>
  <path class="ColorScheme-Highlight" d="m24 6c0.07982 0.2246 0.13165 0.46177 0.13165 0.71429v18.571c0 0.25252-0.05183 0.48968-0.13166 0.71428h1.1569c1.0215 0 1.8431-0.83625 1.8431-1.875v-16.25c0-1.0388-0.8216-1.875-1.8431-1.875z" fill="currentColor"/>
 </g>
</svg>
